!!!OTL: Zwei Wasser. (Schwimmersage)
!!!ARE: Europa, Mitteleuropa, Deutschland
!!!SCT: A0024C
!!!YEM: Copyright 1995, estate of Helmut Schaffrath.
**kern
*ICvox
*Ivox
*M3/1
*k[b-e-]
*g:
{1g
=1
1.g
2a
1b-
=2
0a
1g
=3
1.a
2b-
1cc
=4
0dd}
{1dd
=5
0cc
1a
=6
1b-
0g
=7
0.fn
=8
0r}
{1fn
=9
0a
1b-
=10
0cc
1b-
=11
1.g
2a
1b-
=12
0a}
{1g
=13
1fn
1d
1fn
=14
1g
0a
=15
0g}
==
!!!AGN: Romanze, Ballade, Lied
!! Mel. bei Rhaw, Bicinia II. 1545 No. 19.- Fuer Laute gesetzt und
!!    etwas verzerrt steht die Melodie schon in Hans Judenkunigs
!!    Lautenbuch, Wien 1523. Entzifferung s. Ambros, Gesch. d. Musik II,
!!    282.
!!!ONB: ESAC (Essen Associative Code) Database: ALTDEU
!!!AMT: simple triple
!!!AIN: vox
!!!EED: Helmut Schaffrath
!!!EEV: 1.0
*-
